X: 298
T: Xiu huadeng
L: 1/16
M: 2/4
K: G
G2 G2 G2 E2 [I:setbarnb 1]| 
d2 e dB4 | 
e2 e g d2 d B | 
d2A6 | 
d2 A Bd4 | 
e2 B AG4 | 
A2 A B G2 E2 | 
D8 | 
E G D EG4 | 
A2 G AB4 | 
A2 A B A F E D | 
E G E DE4 | 
d2> e2d4 | 
D2 G2 G E D2 | 
d2> B2 A2 B2 | 
G2 E2D4 | 
G2 G A B2 G2 | 
A8 | 
e2 e g2< B2 d | 
e d e gd4 | 
d2 d B A B d2 | 
B4A G E2 | 
D8 |]

@@@ Tune index: 9172
